icons/kusto.svg

<svg width="16" height="16" version="1.1" viewBox="0 0 16 16" xmlns="http://www.w3.org/2000/svg">
 <path d="m10 1c-2.77 0-5 2.23-5 5v5h5c2.77 0 5-2.23 5-5s-2.23-5-5-5zm1.5 3h1.5v1 1 2 1h-0.75-0.75v-1-1-1-2zm-5 1h1.5v4h-1.5v-4zm2.5 1h1.5v3h-1.5v-3zm-8 2v3h3v-3h-3zm0 4v0.50195 0.49805 1.498c0 0.27816 0.22379 0.50195 0.50195 0.50195h1.498 0.49805 0.50195v-0.50195-1.9961-0.50195h-0.50195-0.49805-1.498-0.50195zm4 0v3h3v-3h-3z" fill="#1e88e5" stroke-width="0"/>
</svg>

<svg xmlns="http://www.w3.org/2000/svg" viewBox="0 0 16 16"><path fill="#1e88e5" d="M10 1C7.23 1 5 3.23 5 6v5h5c2.77 0 5-2.23 5-5s-2.23-5-5-5m1.5 3H13v5h-1.5zm-5 1H8v4H6.5zM9 6h1.5v3H9zM1 8v3h3V8zm0 4v2.498a.5.5 0 0 0 .502.502H4v-3zm4 0v3h3v-3z"/></svg>
